src/pos-icons/ninja.svg

<svg height="24" viewBox="0 0 24 24" width="24" xmlns="http://www.w3.org/2000/svg"><path d="m7.75 13c-.01-.35.15-.69.42-.92.75.16 1.45.47 2.08.92 0 .68-.56 1.24-1.25 1.24s-1.24-.55-1.25-1.24m6 0c.63-.44 1.33-.75 2.08-.91.27.23.43.57.42.91 0 .7-.56 1.26-1.25 1.26s-1.25-.56-1.25-1.26zm-1.75-4c-2.77-.04-5.5.65-7.93 2l-.07 1c0 1.23.29 2.44.84 3.54 2.37-.36 4.76-.54 7.16-.54s4.79.18 7.16.54c.55-1.1.84-2.31.84-3.54l-.07-1c-2.43-1.35-5.16-2.04-7.93-2m0-7a10 10 0 0 1 10 10 10 10 0 0 1 -10 10 10 10 0 0 1 -10-10 10 10 0 0 1 10-10z"/></svg>

<?xml version="1.0" encoding="UTF-8"?><!DOCTYPE svg PUBLIC "-//W3C//DTD SVG 1.1//EN" "http://www.w3.org/Graphics/SVG/1.1/DTD/svg11.dtd"><svg xmlns="http://www.w3.org/2000/svg" xmlns:xlink="http://www.w3.org/1999/xlink" version="1.1" id="mdi-ninja" width="24" height="24" viewBox="0 0 24 24"><path d="M7.75,13C7.74,12.65 7.9,12.31 8.17,12.08C8.92,12.24 9.62,12.55 10.25,13C10.25,13.68 9.69,14.24 9,14.24C8.31,14.24 7.76,13.69 7.75,13M13.75,13C14.38,12.56 15.08,12.25 15.83,12.09C16.1,12.32 16.26,12.66 16.25,13C16.25,13.7 15.69,14.26 15,14.26C14.31,14.26 13.75,13.7 13.75,13V13M12,9C9.23,8.96 6.5,9.65 4.07,11L4,12C4,13.23 4.29,14.44 4.84,15.54C7.21,15.18 9.6,15 12,15C14.4,15 16.79,15.18 19.16,15.54C19.71,14.44 20,13.23 20,12L19.93,11C17.5,9.65 14.77,8.96 12,9M12,2A10,10 0 0,1 22,12A10,10 0 0,1 12,22A10,10 0 0,1 2,12A10,10 0 0,1 12,2Z" /></svg>
